X:232
T: BRAUNS MAEDCHEN AN DEM LADEN LAG
N: E0116A
O: Europa, Mitteleuropa, Luxemburg
R: erzaehlendes Volks - Lied, Schalk -, Schelmen - Lied, Liebe
M: 4/4
L: 1/8
K: G
D2 | G3FG2AB | G3FG2
c2 | B2ABG2B2 | A4z2
AB | c3BABcA | B3GA2z2
B2AGFEDE | F2c2BAGA | B6

